public/images/prizes/best-social-impact.svg

<svg fill="none" height="156" viewBox="0 0 136 156" width="136" xmlns="http://www.w3.org/2000/svg"><circle cx="68" cy="78" fill="#3a7dff" r="51"/><path d="m43.5 99c24.0244 0 43.5-19.4756 43.5-43.5s-19.4756-43.5-43.5-43.5-43.5 19.4756-43.5 43.5 19.4756 43.5 43.5 43.5z" fill="#88c9f9"/><g fill="#5c913b"><path d="m6.79567 73.3229c-.14984-2.4166-.14984-2.8686-.14984-5.7396s1.35817-2.4166 2.71875-3.7748c1.36062-1.3582 1.05852-1.5104 3.32292-2.9991 2.2644-1.4886 1.0585-3.1924.9063-4.0986-.1523-.9063-1.5105-.1523-3.7773.1474-2.26683.2996-1.508-.754-2.86858-1.3582-1.36059-.6042-1.96234-1.5104-2.871-4.2292-.90867-2.7187-1.0585-3.4751-.754-5.7396.3045-2.2644 1.36058-.1522 1.51041 2.2645.14984 2.4166 2.26684 1.5104 2.26684 3.0208s3.02083 3.1707 3.77483 3.625 2.871-2.2668 3.625-3.0208 1.6627-1.8125 1.9623-2.4167c.2997-.6042 4.0794-1.0585 4.8334-1.0585s2.5665 2.2668 2.5665 3.3229.9062 3.9271 1.6626 5.5874c.7565 1.6602 2.4167 1.9623 3.9271 3.1706 1.5104 1.2084 2.2669.1499 2.2669.1499s-.6042-2.5666-.6042-4.6836 1.8125-3.927 1.8125-3.927 2.871 2.1145 3.0208 2.7187c.1499.6042 2.4167 2.7188 2.5665 3.7749.1499 1.056 1.3582 2.4166 3.5839 2.7187 2.2258.3021.6453-2.5665 1.3993-4.5312.754-1.9648 1.8125-2.2669 3.1707-2.5666 1.3581-.2996 2.4166-1.5104 3.3229-2.7187.9062-1.2083 2.5665-2.871 2.4166-4.2292-.1498-1.3581-.6041-2.2668-1.2083-3.9271-.6042-1.6602 1.8125-2.2668 2.871-4.2291 1.0585-1.9624 0 0 2.4167-.6042 2.4166-.6042 1.3581-.6042 1.8125-1.5104.4543-.9063.754-1.8125.3021-3.4752-.452-1.6626-2.1146 0-3.7749 0-1.6602 0 .6066-2.2571.7564-4.0696.1499-1.8125 2.2669-1.3582 3.7749-1.5104 1.508-.1523 1.9623 1.9623 2.4166 2.4166.4544.4544 5.1355-3.0208 6.3438-4.6835s-1.0561-1.2059-.4519-1.9067c.6041-.7009-3.625-.8434-5.2877-1.1117-1.6627-.2682-5.8894-.4543-7.5497-1.479-1.6602-1.0247-8.004-.2513-9.6666.5728-1.6627.824-2.7188-.0701-3.4752-1.2084-.7564-1.1382-3.9271-.5679-4.8333-1.2083-.9063-.6404-1.8125 1.0561-3.0209 1.5104-1.2083.4543-1.6626.6042-3.1706-.3021-1.508-.9062.4519-1.9647-1.6627-2.7187-1.4162-.5051-3.1127-.2103-5.7517-.2683-13.81847 7.2863-23.2483 21.7742-23.2483 38.4806 0 8.265 2.34658 15.9621 6.34858 22.5403.74434-1.2519.55825-2.9411.44709-4.7174zm35.04163-2.8686c1.0585.1499 4.0794 0 1.6627-1.9623s-3.7748-.4543-3.4752-2.7187c.2997-2.2645-1.5104-2.2669-1.5104-2.2669 0 1.6627-1.2083 3.4752 0 5.1354 1.2084 1.6603 2.2669 1.6603 3.3229 1.8125z"/><path d="m57.246 45.2292c-2.4166-1.9624-.6041-1.3582-.302-3.625.302-2.2669-1.5105-2.2669-1.5105-2.2669 0 1.6627-1.2083 3.4752 0 5.1355 1.2084 1.6602-2.4166 3.0208-1.3581 3.1706s5.5873-.4519 3.1706-2.4142zm-9.3766 23.5625c1.4983 1.6626.9183 0 2.8806-.754 1.9624-.754-1.6626-2.4167-2.871-3.323-1.2083-.9062-2.4094-.94-3.4655 1.0585-1.1986 2.2645 1.9575 1.3558 3.4559 3.0185zm17.6827 3.0208c-.754-.9063-2.4166-1.3582-4.2291-1.3171-1.8125.0435-1.6627-2.0058-3.4752-1.856s-3.1078-1.218-3.9271-1.6409c-1.7811-.9183-.6042 1.1866 0 3.4945s2.871.5607 4.9832 1.769c2.1121 1.2083 2.2668-.4543 4.2291.1498 1.9624.6042 2.7188 1.9624 4.6014 1.8125 1.8826-.1498-1.4259-1.5056-2.1823-2.4118zm-3.9271 6.6458c-.754-1.5104-2.9628-2.871-3.869-3.6371-.9063-.766-2.3249-1.0246-3.5332-.58-1.2083.4447-1.9623 0-2.5665-1.1962-.6042-1.1963-1.6627-.7782-2.5665-.6283-.9038.1498-4.5313 1.6626-6.6458 2.7187-2.1146 1.0561-3.0765 1.9744-4.4636 3.3229-2.1702 2.1122-.9739.754 0 2.1146.9739 1.3582-1.0682 5.5873-1.218 8.004-.1499 2.4167 3.8715-.754 5.3819-1.0585s1.0657-1.2083 2.2741-2.1146c1.2083-.9062 1.9937-1.1189 3.3205.0894 1.3267 1.2084 3.0643 2.3273 3.0643 3.6855 0 1.3581 4.7826 3.625 6.5951 2.7187 1.8125-.9062 2.871-2.7187 4.5312-4.2292 1.6603-1.5104 1.0585-4.379 1.5105-6.1915.4519-1.8125-1.061-1.508-1.815-3.0184z"/></g></svg>

<svg width="136" height="156" viewBox="0 0 136 156" fill="none" xmlns="http://www.w3.org/2000/svg">
<circle cx="68" cy="78" r="51" fill="#3A7DFF"/>
<path d="M43.5 99C67.5244 99 87 79.5244 87 55.5C87 31.4756 67.5244 12 43.5 12C19.4756 12 0 31.4756 0 55.5C0 79.5244 19.4756 99 43.5 99Z" fill="#88C9F9"/>
<path d="M6.79567 73.3229C6.64583 70.9063 6.64583 70.4543 6.64583 67.5833C6.64583 64.7123 8.004 65.1667 9.36458 63.8085C10.7252 62.4503 10.4231 62.2981 12.6875 60.8094C14.9519 59.3208 13.746 57.617 13.5938 56.7108C13.4415 55.8045 12.0833 56.5585 9.8165 56.8582C7.54967 57.1578 8.3085 56.1042 6.94792 55.5C5.58733 54.8958 4.98558 53.9896 4.07692 51.2708C3.16825 48.5521 3.01842 47.7957 3.32292 45.5312C3.62742 43.2668 4.6835 45.379 4.83333 47.7957C4.98317 50.2123 7.10017 49.3061 7.10017 50.8165C7.10017 52.3269 10.121 53.9872 10.875 54.4415C11.629 54.8958 13.746 52.1747 14.5 51.4207C15.254 50.6667 16.1627 49.6082 16.4623 49.004C16.762 48.3998 20.5417 47.9455 21.2957 47.9455C22.0497 47.9455 23.8622 50.2123 23.8622 51.2684C23.8622 52.3245 24.7684 55.1955 25.5248 56.8558C26.2813 58.516 27.9415 58.8181 29.4519 60.0264C30.9623 61.2348 31.7188 60.1763 31.7188 60.1763C31.7188 60.1763 31.1146 57.6097 31.1146 55.4927C31.1146 53.3757 32.9271 51.5657 32.9271 51.5657C32.9271 51.5657 35.7981 53.6802 35.9479 54.2844C36.0978 54.8886 38.3646 57.0032 38.5144 58.0593C38.6643 59.1153 39.8726 60.4759 42.0983 60.778C44.3241 61.0801 42.7436 58.2115 43.4976 56.2468C44.2516 54.282 45.3101 53.9799 46.6683 53.6802C48.0264 53.3806 49.0849 52.1698 49.9912 50.9615C50.8974 49.7532 52.5577 48.0905 52.4078 46.7323C52.258 45.3742 51.8037 44.4655 51.1995 42.8052C50.5953 41.145 53.012 40.5384 54.0705 38.5761C55.129 36.6137 54.0705 38.5761 56.4872 37.9719C58.9038 37.3677 57.8453 37.3677 58.2997 36.4615C58.754 35.5552 59.0537 34.649 58.6018 32.9863C58.1498 31.3237 56.4872 32.9863 54.8269 32.9863C53.1667 32.9863 55.4335 30.7292 55.5833 28.9167C55.7332 27.1042 57.8502 27.5585 59.3582 27.4063C60.8662 27.254 61.3205 29.3686 61.7748 29.8229C62.2292 30.2773 66.9103 26.8021 68.1186 25.1394C69.3269 23.4767 67.0625 23.9335 67.6667 23.2327C68.2708 22.5318 64.0417 22.3893 62.379 22.121C60.7163 21.8528 56.4896 21.6667 54.8293 20.642C53.1691 19.6173 46.8253 20.3907 45.1627 21.2148C43.5 22.0388 42.4439 21.1447 41.6875 20.0064C40.9311 18.8682 37.7604 19.4385 36.8542 18.7981C35.9479 18.1577 35.0417 19.8542 33.8333 20.3085C32.625 20.7628 32.1707 20.9127 30.6627 20.0064C29.1547 19.1002 31.1146 18.0417 29 17.2877C27.5838 16.7826 25.8873 17.0774 23.2483 17.0194C9.42983 24.3057 0 38.7936 0 55.5C0 63.765 2.34658 71.4621 6.34858 78.0403C7.09292 76.7884 6.90683 75.0992 6.79567 73.3229ZM41.8373 70.4543C42.8958 70.6042 45.9167 70.4543 43.5 68.492C41.0833 66.5297 39.7252 68.0377 40.0248 65.7733C40.3245 63.5088 38.5144 63.5064 38.5144 63.5064C38.5144 65.1691 37.3061 66.9816 38.5144 68.6418C39.7228 70.3021 40.7813 70.3021 41.8373 70.4543Z" fill="#5C913B"/>
<path d="M57.246 45.2292C54.8294 43.2668 56.6419 43.871 56.944 41.6042C57.246 39.3373 55.4335 39.3373 55.4335 39.3373C55.4335 41 54.2252 42.8125 55.4335 44.4728C56.6419 46.133 53.0169 47.4936 54.0754 47.6434C55.1339 47.7932 59.6627 47.1915 57.246 45.2292V45.2292ZM47.8694 68.7917C49.3677 70.4543 48.7877 68.7917 50.75 68.0377C52.7124 67.2837 49.0874 65.621 47.879 64.7147C46.6707 63.8085 45.4696 63.7747 44.4135 65.7732C43.2149 68.0377 46.371 67.129 47.8694 68.7917V68.7917ZM65.5521 71.8125C64.7981 70.9062 63.1355 70.4543 61.323 70.4954C59.5105 70.5389 59.6603 68.4896 57.8478 68.6394C56.0353 68.7892 54.74 67.4214 53.9207 66.9985C52.1396 66.0802 53.3165 68.1851 53.9207 70.493C54.5249 72.8009 56.7917 71.0537 58.9039 72.262C61.016 73.4703 61.1707 71.8077 63.133 72.4118C65.0954 73.016 65.8518 74.3742 67.7344 74.2243C69.617 74.0745 66.3085 72.7187 65.5521 71.8125V71.8125ZM61.625 78.4583C60.871 76.9479 58.6622 75.5873 57.756 74.8212C56.8497 74.0552 55.4311 73.7966 54.2228 74.2412C53.0145 74.6859 52.2605 74.2412 51.6563 73.045C51.0521 71.8487 49.9936 72.2668 49.0898 72.4167C48.186 72.5665 44.5585 74.0793 42.444 75.1354C40.3294 76.1915 39.3675 77.1098 37.9804 78.4583C35.8102 80.5705 37.0065 79.2123 37.9804 80.5729C38.9543 81.9311 36.9122 86.1602 36.7624 88.5769C36.6125 90.9936 40.6339 87.8229 42.1443 87.5184C43.6547 87.2139 43.21 86.3101 44.4184 85.4038C45.6267 84.4976 46.4121 84.2849 47.7389 85.4932C49.0656 86.7016 50.8032 87.8205 50.8032 89.1787C50.8032 90.5368 55.5858 92.8037 57.3983 91.8974C59.2108 90.9912 60.2693 89.1787 61.9295 87.6682C63.5898 86.1578 62.988 83.2892 63.44 81.4767C63.8919 79.6642 62.379 79.9687 61.625 78.4583V78.4583Z" fill="#5C913B"/>
</svg>
